!!!COM: Schiørring, Niels
!!!CDT: 1743-1798
!!!OPR@@DA: Choral-Bog
!!!ONM: 3
!!!OTL@@DA: Af dybeﬅe Nød lader os til Gud
**kern	**fb	**kern	**kern	**kern	**kern	**kern	**kern	**kern
*part6	*part6	*part6	*part5	*part5	*part4	*part3	*part2	*part1
*staff8	*	*staff7	*staff6	*staff5	*staff4	*staff3	*staff2	*staff1
*clefF4	*	*clefC1	*clefF4	*clefC1	*clefF4	*clefC4	*clefC3	*clefC1
*	*	*	*	*	*	*Trd0c0	*	*
*k[f#]	*	*k[f#]	*k[f#]	*k[f#]	*k[f#]	*k[f#]	*k[f#]	*k[f#]
*G:	*	*G:	*G:	*G:	*G:	*G:	*G:	*G:
*M4/4	*	*M4/4	*M4/4	*M4/4	*M4/4	*M4/4	*M4/4	*M4/4
*met(c)	*	*met(c)	*met(c)	*met(c)	*met(c)	*met(c)	*met(c)	*met(c)
*MM180	*	*MM180	*MM180	*MM180	*MM180	*MM180	*MM180	*MM180
*	*	*	*^	*^	*	*	*	*
2GG	.	2g	2ryy	2GG	2B	2d	2GG	2b	2d	2g
=1	=1	=1	=1	=1	=1	=1	=1	=1	=1	=1
2AA	6	2f#	2A	2AA	2f#	2c	2AA	2a	2c	2f#
2BB	6	2g	[2G	2BB	2g	2d	2BB	[2g	2d	2g
=2	=2	=2	=2	=2	=2	=2	=2	=2	=2	=2
2C	6 5	2a	2G]	2C	2a	2e	2C	2g]	2e	2a
2D	.	2a	2F#	2D	2a	2d	2D	2f#	2d	2a
=3	=3	=3	=3	=3	=3	=3	=3	=3	=3	=3
2E	.	2g	2G	2E	2g	2B	2E	2g	2B	2g
2D	.	2a	2F#	2D	2a	2d	2D	2f#	2d	2a
=4	=4	=4	=4	=4	=4	=4	=4	=4	=4	=4
*	*	*	*	*	*	*	*^	*	*	*
2GG	.	2b	2G	2GG	2b	2d	2G	2GG	2g	2d	2b
*	*	*	*	*	*	*^	*	*	*	*	*
2FF#	5	2cc	2F#	2FF#	2cc	2d	2a/	2F#	2FF#	2a	2d	2cc
=5	=5	=5	=5	=5	=5	=5	=5	=5	=5	=5	=5	=5
2GG	.	2b	1ryy	2GG	2d	2g	1r	4G	2GG	2g	2d	2b
.	.	.	.	.	.	.	.	4GG	.	.	.	.
2AA	6	2a	.	2AA	2c	2f#	.	2AA	2AA	2cc	2f#	2a
=6	=6	=6	=6	=6	=6	=6	=6	=6	=6	=6	=6	=6
2BB	6	2g	2G	2BB	2g	2d	1r	2BB	1r	2b	2d	2g
4AA	6	(4f#	4A	4AA	4f#	4c	.	(4AA	.	(4cc	(4c	(4f#
4GG	.	4g)	4ryy@	4GG	4B	4d	.	4GG)	.	4b)	4d)	4g)
=7	=7	=7	=7	=7	=7	=7	=7	=7	=7	=7	=7	=7
2C	6	1a	4A	2C	1a	2e	1r	(2C	1r	(4a	(2e	1a
2D	5	.	2F#	2D	.	2d	.	2D)	.	2f#)	4d	.
.	.	.	.	.	.	.	.	.	.	.	4c)	.
=	=	=	=	=	=	=	=	=	=	=	=	=
2GG	.	2g	2G	2GG	2g	2B	2d/	2GG	2r	2g	2B	2g
*	*	*	*	*	*	*v	*v	*	*	*	*	*
=8:|!	=8:|!	=8:|!	=8:|!	=8:|!	=8:|!	=8:|!	=8:|!	=8:|!	=8:|!	=8:|!	=8:|!
4E	.	2g	2ryy	4E	2B	2e	(4E	2r	2b	2e	2g
4D	.	.	.	4D	.	.	4D)	.	.	.	.
=9	=9	=9	=9	=9	=9	=9	=9	=9	=9	=9	=9
4C	6	2a	1ryy	2C	2e	2e	(4C	1r	2ee	2e	2a
4BB	.	.	.	.	.	.	4BB)	.	.	.	.
2AA	.	2cc	.	2AA	2e	2a	2AA	.	2ee	2a	2cc
=10	=10	=10	=10	=10	=10	=10	=10	=10	=10	=10	=10
2BB	#	2b	2ryy@	2BB	2d#X	2f#	2BB	1r	2dd#X	2f#	2b
2E	.	2g	2B	2E	2g	2e	2E	.	2b	2e	2g
=11	=11	=11	=11	=11	=11	=11	=11	=11	=11	=11	=11
2AA	6	2a	2ryy@	2AA	2c	2f#	2AA	1r	2cc	2f#	2a
2BB	#	2f#	4B	2BB	2f#	2d#X	2BB	.	(4b	2d#X	2f#
.	.	.	4A	.	.	.	.	.	4a)	.	.
=12	=12	=12	=12	=12	=12	=12	=12	=12	=12	=12	=12
2E	.	2e	2G	2E	2e	2B	2E	1r	2g	2e	2e
2AA	6	2f#	[2A	2AA	2f#	[2c	2AA	.	[2a	[2c	2f#
=13	=13	=13	=13	=13	=13	=13	=13	=13	=13	=13	=13
2BB	9 7	2d	2A]	2BB	2d	2c]	2BB	1r	2a]	2c]	2d
2G	.	2d	2G	2G	2d	2B	2G	.	2g	2B	2d
=14	=14	=14	=14	=14	=14	=14	=14	=14	=14	=14	=14
2F#	6	2a	2A	2F#	2a	2d	2F#	1r	2a	2d	2a
2Fn	2	2b	2G	2Fn	2b	2d	2Fn	.	2dd	2g	2b
=15	=15	=15	=15	=15	=15	=15	=15	=15	=15	=15	=15
4E	6	2cc	2G	4E	2cc	2e	(4E	1r	(4cc	2g	2cc
4C	.	.	.	4C	.	.	4C)	.	4ee)	.	.
2D	#	2a	4F#Xi	2D	2a	2d	2D	.	4dd	2f#	2a
.	.	.	4c	.	.	.	.	.	4cc	.	.
=16	=16	=16	=16	=16	=16	=16	=16	=16	=16	=16	=16
2GG	.	2g	1ryy	2GG	2B	2d	2G	2GG	2b	2g	2g
2FF#	6	2dd	.	2FF#	2d	2a	2F#	2FF#	2dd	2a	2dd
=17	=17	=17	=17	=17	=17	=17	=17	=17	=17	=17	=17
2GG	.	2b	1ryy	2GG	2d	2g	(4G	2GG	2dd	2g	2b
.	.	.	.	.	.	.	4GG)	.	.	.	.
2AA	6	2a	.	2AA	2c	2f#	2AA	2AA	2cc	2f#	2a
*	*	*	*	*	*	*	*v	*v	*	*	*
=18	=18	=18	=18	=18	=18	=18	=18	=18	=18	=18
2BB	6	2g	2G	2BB	2g	2d	2BB	2b	2d	2g
4AA	6	(4f#	4A	4AA	4f#	4c	(4AA	(4cc	(4c	(4f#
4GG	.	4g)	4ryy@	4GG	4B	4d	4GG)	4b)	4d)	4g)
=19	=19	=19	=19	=19	=19	=19	=19	=19	=19	=19
2C	6	1a	4A	2C	1a	2e	(2C	(4a	(2e	1a
2D	5	.	2F#	2D	.	2d	2D)	2f#)	4d	.
.	.	.	.	.	.	.	.	.	4c)	.
=20	=20	=20	=20	=20	=20	=20	=20	=20	=20	=20
*	*	*	*	*	*	*^	*	*	*	*
2GG	.	2g	2G	2GG	2g	2B	2d/	2GG	2g	2B	2g
*	*	*	*v	*v	*	*	*	*	*	*	*
*	*	*	*	*v	*v	*v	*	*	*	*
==	==	==	==	==	==	==	==	==
*-	*-	*-	*-	*-	*-	*-	*-	*-
!!!system-decoration: {(s1,s2,s3,s4)}{(s5,s6)}{(s7,s8)}
!!!RDF**kern: i = editorial accidental
!!!AGN: chorale
!!!EED: Derek Remeš
!!!EED2: Victor Phan
!!!END: 2023/11/28
!!!ENC: Wolfgang Drescher
!!!EEV: 2023/11/28
!!!title: @{ONM}. @{OTL}